!!!!SEGMENT: pl-wtm--r-1183--001_lessel-franciszek--adagio-et-polonoise-andantino.krn
!!!cenid: 18xx:1630
!!!COM: Lessel, Franciszek
!!!COM-rismID: pe30004332
!!!CDT: 1780-1838/12/26
!!!CNT: Polish
!!!OPR: Adagio et Polonoise
!!!OTL: Andantino
!!!OMV: 001
!!!PDT: 1807
!!!AGN: Secular
!!!SMS-siglum: PL-Wtm
!!!SMS-shelfmark: R 1183
!!!SMS-shelfwork: 001-001 M
!!!SMS-variant:
!!!SMS-altvar:
!!!NIFC-rismSourceID: 1001087657
!!!NIFC-rismChildID: 1001087657
!!!NIFC-islandoraID:
!!!URL-pdf-islandora:
!!!URL-scan:
!!!ONB-nifc: UWAGA: części: 1. Andantino, 2. Polonaise
!!!AIN: 1 cello 1 empty 1 piano
!!!key:
!!!OMD:
!!!OMD-mod: Andantino
!!!filter-modern: sic -sq | shed -e "s/TX(.*):t=P:/tx$1:t=P:/LG" | shed -k -e "s/([^a-gA-Gn#X-])[<>]/$1/g" | shed -e "s/:rj/:RJ/L" | shed -k -e "s/:TUP:/:tup:/L" | shed -e "s/^(\d+[\/\\]right)/$1yy/I;s/^(\d+[\/\\]left)/$1yy/I" | shed -e "s/LO:DY:(a|b|rj)/LO:dy:$1/L" | shed -e "s/-//B" | autostem -r | tie -s  | modori -m
**kern	**kern	**dynam	**kern	**dynam
*part3	*part2	*part2	*part1	*part1
*staff3	*staff2	*	*staff1	*
*Iempty	*Ipiano	*	*Icello	*
*	*I"[Piano]	*	*I"[Violon]	*
*	*I'pf	*	*I'vl	*
*mI"Pianoforte	*mI"Pianoforte	*	*mI"Violino	*
*clefF4	*clefG2	*	*clefG2	*
*k[f#c#]	*k[f#c#]	*	*k[f#c#]	*
*D:	*D:	*	*D:	*
*M4/4	*M4/4	*	*M4/4	*
*met(c)	*met(c)	*	*met(c)	*
=1	=1	=1	=1	=1
!	!	!	!LO:TX:t=P:problem=2\right&colon; global	!
!	!LO:TX:t=Andantino:mod=	!	!LO:TX:t=Andantino:mod=	!
!	!LO:MO:mod=!LO&colon;TX&colon;i&colon;t=dolce	!	!LO:MO:mod=!LO&colon;TX&colon;i&colon;t=dolce	!
!LO:TX:t=P:problem=2\right&colon; global	!LO:TX::a:t=Dol.:mod=	!	!LO:TX::a:t=Dol:mod=	!
4F#\ 4D\	4f#/ 4d/ 4A/	.	4ff#\	.
4F#\ 4D\	4f#/ 4d/ 4A/	.	4ff#\	.
=2	=2	=2	=2	=2
*	*^	*	*	*
*2\right	*	*2\right	*	*	*
2F#\ 2D\	4.f#/	2d\ 2A\	.	(4.ff#\	.
.	16g/LL	.	.	16gg\LL	.
.	16a/JJ	.	.	16aa\JJ)	.
4E\ 4C#\	4g/	4e\ 4A\	.	4gg\	.
4F#\ 4D\	4f#/	4d\ 4A\	.	4ff#\	.
=3	=3	=3	=3	=3	=3
4G\ 4AA\	8f#/L	4c#\ 4A\	.	(8ff#\L	.
.	8e/J	.	.	8ee\J	.
4F#\ 4D\	4d/	4A\	.	4dd\)	.
4G\ 4E\ 4AA\	8.c#/L	4A\	.	8.cc#\L	.
.	32d/LL	.	.	32dd\LL	.
.	32e/JJJ	.	.	32ee\JJJ	.
4F#\ 4D\ 4AA\	4d/	4A\	.	4dd\	.
=4	=4	=4	=4	=4	=4
4E\ 4C#\ 4AA\	8.e/L	4A\	.	8.ee\L	.
.	32f#/LL	.	.	32ff#\LL	.
.	32g/JJJ	.	.	32gg\JJJ	.
4F#\ 4D\ 4AA\	8.f#/L	4A\	.	8.ff#\L	.
.	32g/LL	.	.	32gg\LL	.
.	32a/JJJ	.	.	32aa\JJJ	.
4G\ 4E\ 4AA\	8.g/L	4c#\ 4A\	.	8.gg\L	.
.	16a/Jk	.	.	16aa\K	.
4F#\ 4D\ 4AA\	8.f#/L	4d\ 4A\	.	8.ff#\	.
.	16g/Jk	.	.	16gg\Jk	.
*	*v	*v	*	*	*
!LO:LB:g=original	!	!	!LO:LB:g=original	!
=5	=5	=5	=5	=5
4E/ 4C#/ 4AA/	4e/ 4c#/ 4A/	.	4ee\	.
4r	4r	.	4r	.
4F#\ 4D\	4f#/ 4d/ 4A/	.	4ff#\	.
4F#\ 4D\	4f#/ 4d/ 4A/	.	4ff#\	.
=6	=6	=6	=6	=6
*	*^	*	*	*
2F#\ 2D\	4.f#/	2d\ 2A\	.	4.ff#\	.
.	16g/LL	.	.	16gg\LL	.
.	16a/JJ	.	.	16aa\JJ	.
4E\ 4C#\	4g/ 4e/ 4A/	2ryy	.	4gg\	.
4F#\ 4D\	4f#/ 4d/ 4A/	.	.	4ff#\	.
=7	=7	=7	=7	=7	=7
4G\ 4AA\	8f#/L	4c#\ 4A\	.	8ff#\L	.
.	8e/J	.	.	8ee\J	.
4F#\ 4D\	4d/	4A\	.	4dd\	.
4Fn\ 4D\	8.g#X/L	4d\	.	8.gg#X\L	.
.	32a/LL	.	.	32aa\LL	.
.	32b/JJJ	.	.	32bb\JJJ	.
4E\ 4C#\	4a/	4e\	.	4aa\	.
=8	=8	=8	=8	=8	=8
4G#X\ 4D\ 4BB\	8.b/L	4e\	.	8.bb\L	.
.	32cc#/LL	.	.	32ccc#\LL	.
.	32dd/JJJ	.	.	32ddd\JJJ	.
4A\ 4E\ 4AA\	4cc#/	4e\	.	4ccc#\	.
4G#X\ 4Fn\ 4D\ 4AA\	4b/	4fn\ 4d\	.	4bb\	.
4E\ 4D\ 4BB\ 4AA\	4g#X/ 4e/	4d\	.	4gg#X\	.
=9	=9	=9	=9	=9	=9
*^	*	*	*	*	*
*	*	*	*	*	*2\right	*
2E/ 2C#/	2AA\	2a/ 2e/	2c#\	.	2aa\	.
4G\	2ryy	4e/ 4B/	4ryy	.	4ee\	.
4A\ 4F#\	.	4f#/ 4d#X/	4B\	.	4ff#\	.
*v	*v	*	*	*	*	*
*	*v	*v	*	*	*
!LO:LB:g=original	!	!	!	!
=10	=10	=10	=10	=10
4G\ 4E\	4.g/ 4.e/ 4.B/	.	4.gg\	.
4E\ 4D\	.	.	.	.
.	8g#X/ 8e/ 8B-X/	.	8gg#X\	.
4E\ 4C#\	4a/ 4e/ 4A/	.	(4aa\	.
4E\ 4C#\ 4AA\	4gn/ 4e/ 4A/	.	16ccc#\LL	.
.	.	.	16bb\	.
.	.	.	16aa\	.
.	.	.	16ggn\JJ)	.
!	!	!	!LO:LB:g=original	!
=11	=11	=11	=11	=11
*	*^	*	*	*
4E\ 4C#\	4g/ 4e/ 4A/	2ryy	.	(4gg\	.
4F#\ 4D\	4f#/ 4d/ 4A/	.	.	4ff#\)	.
4A\ 4F#\	4dd\ 4a\	4ryy	.	4ddd\	.
.	.	.	.	8qfff#/	.
4B\ 4G#X\	8.ee/L	4b\ 4e\	.	8.eee\L	.
.	16dd/Jk	.	.	16ddd\Jk	.
=12	=12	=12	=12	=12	=12
4A\	8dd/L	2a\ 2e\	.	8ddd\L	.
.	8cc#/	.	.	8ccc#\	.
4A\ 4Gn\	8dd/	.	.	8ddd\	.
.	8ee/J	.	.	8eee\J	.
4A\ 4F#\	8.a/L	2d\	.	8.aa\L	.
.	32b/LL	.	.	32bb\LL	.
.	32a/JJJ	.	.	32aa\JJJ	.
4A\ 4D\	8.g/L	.	.	8gg\L	.
.	.	.	.	8ff#\J	.
.	16f#/Jk	.	.	.	.
=13	=13	=13	=13	=13	=13
4A\ 4AA\	4e/	4c#\	.	4ee\	.
4r	4r	4ryy	.	4r	.
4F#\ 4D\	4f#/ 4d/ 4A/	2ryy	.	4ff#\	.
4F#\ 4D\	4f#/ 4d/ 4A/	.	.	4ff#\	.
=14	=14	=14	=14	=14	=14
2F#\ 2D\	4.f#/	2d\ 2A\	.	4.ff#\	.
.	16g/LL	.	.	16gg\LL	.
.	16a/JJ	.	.	16aa\JJ	.
4E\ 4C#\	4g/	4e\ 4A\	.	4gg\	.
4F#\ 4D\	4f#/	4d\ 4A\	.	4ff#\	.
!LO:LB:g=original	!	!	!	!	!
=15	=15	=15	=15	=15	=15
4G\ 4AA\	8f#/L	4c#\ 4A\	.	(8ff#\L	.
.	8e/J	.	.	8ee\J	.
4F#\ 4D\	4d/	4A\	.	4dd\)	.
4B\ 4G\	4b/ 4g/ 4d/	2ryy	.	4bb\	.
4c#\ 4A\	4a/ 4f#/	.	.	4aa\	.
=16	=16	=16	=16	=16	=16
4d\ 4B\	4g#X/ 4fn/	2.ryy	.	4gg#X\	.
4c#\	4gn/ 4e/	.	.	4ggn\	.
4d\	8.f#X/L	.	.	8.ff#\L	.
.	16a/K	.	.	16aa\K	.
4G\ 4C#\ 4AA\	8.g/	4c#\	.	8.gg\	.
.	16e/Jk	.	.	16ee\Jk	.
!	!	!	!	!LO:LB:g=original	!
=17	=17	=17	=17	=17	=17
4F#\ 4D\	4d/	4d\	.	2dd\	.
4r	8r	4ryy	.	.	.
.	8a\	.	.	.	.
!	!	!	!	!LO:MO:mod=!LO&colon;TX&colon;i&colon;t=pizz.	!
!	!	!	!	!LO:TX::a:t=pizzica&colon;	!
4a>\ 4f#>\ 4d>\	4ff#/	2ryy	.	4f#/ 4A/	.
4a>\ 4f#>\ 4d>\	4ff#/	.	.	4f#/ 4A/	.
*	*v	*v	*	*	*
=18	=18	=18	=18	=18
2a>\ 2f#>\ 2d>\	4.ff#t/	.	4f#/ 4A/	.
.	.	.	4r	.
.	16gg/LL	.	.	.
.	16aa/JJ	.	.	.
4a>\ 4g>\ 4e>\ 4c#>\	16aa/LL	.	4e/ 4A/	.
.	16gg/J	.	.	.
.	8ee/J	.	.	.
4a>\ 4f#>\ 4d>\	16gg/LL	.	4f#/ 4A/	.
.	16ff#/J	.	.	.
.	8dd/J	.	.	.
=19	=19	=19	=19	=19
4g>\ 4c#>\ 4A\	8.ff#/L	.	4g/ 4A/	.
.	16ee/Jk	.	.	.
4f#>\ 4d>\	4dd/	.	4f#/ 4A/	.
4g>\ 4e>\ 4A\	8.cc#t/L	.	2r	.
.	32dd/LL	.	.	.
.	32ee/JJJ	.	.	.
*	*Xtuplet	*	*	*
4f#>\ 4d>\ 4A\	24dd/LL	.	.	.
.	24a/	.	.	.
.	24a/	.	.	.
.	16qqb/	.	.	.
.	24a/	.	.	.
.	24g#X/	.	.	.
.	24a/JJ	.	.	.
!LO:LB:g=original	!	!	!	!
=20	=20	=20	=20	=20
!	!	!	!LO:TX::a:t=1:mod=	!
4e>\ 4c#>\ 4A\	8.eeT/L	.	1r	.
.	32ff#/LL	.	.	.
.	32gg/JJJ	.	.	.
4f#>\ 4d>\ 4A\	8.ff#t/L	.	.	.
.	32gg/LL	.	.	.
.	32aa/JJJ	.	.	.
4g>\ 4e>\ 4c#>\ 4A\	24aa/LL	.	.	.
.	24gg/	.	.	.
.	24eee/	.	.	.
.	24ccc#/	.	.	.
.	24aa/	.	.	.
.	24gg/JJ	.	.	.
4f#>\ 4d>\ 4A\	24gg/LL	.	.	.
.	24ff#/	.	.	.
.	24ddd/	.	.	.
.	24aa/	.	.	.
.	24gg/	.	.	.
.	24ff#/JJ	.	.	.
=21	=21	=21	=21	=21
4e>\ 4c#>\ 4A\	4ee/	.	2r	.
!	!LO:TUP:global:problem=sekstola nieoznaczona	!	!	!
4r	24r	.	.	.
.	24a'</LL	.	.	.
.	24b'</	.	.	.
.	24cc#'</	.	.	.
.	24dd'</	.	.	.
.	24ee'</JJ	.	.	.
4a>\ 4f#>\ 4d>\	4ff#/	.	4f#/ 4A/	.
4a>\ 4f#>\ 4d>\	4ff#/	.	4f#/ 4A/	.
=22	=22	=22	=22	=22
2a>\ 2f#>\ 2d>\	4.ff#t/	.	4f#/ 4A/	.
.	.	.	4r	.
.	16gg/LL	.	.	.
.	16aa/JJ	.	.	.
4a>\ 4g>\ 4e>\ 4c#>\	8aa/L	.	4e/ 4A/	.
.	16.gg/L	.	.	.
.	32ee/JJk	.	.	.
4a>\ 4f#>\ 4d>\	8gg/L	.	4f#/ 4A/	.
.	16.ff#/L	.	.	.
.	32dd/JJk	.	.	.
=23	=23	=23	=23	=23
4g>\ 4e>\ 4A\	16ff#/LL	.	4g/ 4A/	.
.	16ee/	.	.	.
.	16.aa/	.	.	.
.	32cc#/JJk	.	.	.
4f#>\ 4d>\	4dd/	.	4f#/ 4A/	.
!LO:LB:g=original	!	!	!	!
4fn>\ 4d>\	8.gg#Xt/L	.	2r	.
.	32aa/LL	.	.	.
.	32bb/JJJ	.	.	.
4e>\ 4c#>\	24aa/LL	.	.	.
.	24ee/	.	.	.
.	24ee/	.	.	.
.	16qqff#/	.	.	.
.	24ee/	.	.	.
.	24dd#X/	.	.	.
.	24ee/JJ	.	.	.
=24	=24	=24	=24	=24
!	!	!	!LO:TX::a:t=1	!
4e>\ 4d>\ 4G#X\	8.bbT\L	.	1r	.
.	32ccc#\LL	.	.	.
.	32ddd\JJJ	.	.	.
4e>\ 4c#>\ 4A\	24aa\LL	.	.	.
.	24eee\	.	.	.
.	24ddd\	.	.	.
.	24ccc#\	.	.	.
.	24bb\	.	.	.
.	24aa\JJ	.	.	.
4B\ 4A\ 4F#\ 4D\	16ff#\KL	.	.	.
.	8fff#\	.	.	.
.	32ddd\LL	.	.	.
.	32bb\JJJ	.	.	.
4d\ 4B\ 4E\	16gg#X\KL	.	.	.
.	8ddd\	.	.	.
.	32bb\LL	.	.	.
.	32gg#\JJJ	.	.	.
!	!	!	!LO:LB:g=original	!
=25	=25	=25	=25	=25
2c#\ 2A\	16aaT\LL	.	2r	.
.	32bb\L	.	.	.
.	32ccc#\JJJ	.	.	.
.	32ddd\LLL	.	.	.
.	32eee\	.	.	.
.	32fff#\	.	.	.
.	32ggg#X\JJJ	.	.	.
.	4aaa\	.	.	.
*clefG2	*	*	*	*
4b/ 4g/	[8eee\L	.	4b/ 4e/	.
.	32eee\LL]	.	.	.
.	32ggg#\	.	.	.
.	32fff#\	.	.	.
.	32eee\JJJ	.	.	.
4b/ 4a/ 4f#/	(16ddd#X\LL	.	4b/ 4f#/	.
.	16bb\)	.	.	.
.	16bbb'\	.	.	.
!	!LO:TX::b:t=V. S:mod=	!	!	!
.	16bbb'\JJ	.	.	.
!LO:PB:g=original	!	!	!	!
=26	=26	=26	=26	=26
4b/ 4g/ 4e/	16bbb\LL	.	4b/ 4g/	.
.	16ggg\	.	.	.
.	16fff#\	.	.	.
.	16eee\JJ	.	.	.
4b-X/ 4g/ 4d/	16r	.	4r	.
.	16eee\LL	.	.	.
.	16ggg\	.	.	.
.	16bbb-X\JJ	.	.	.
4a/ 4e/ 4c#/	(16bbb-\LL	.	4a/ 4e/ 4c#/	.
.	16aaa\)	.	.	.
.	16aa'\	.	.	.
.	16aaa'\JJ	.	.	.
4a/ 4g/ 4e/	(16aaa\LL	.	4a/ 4e/ 4c#/	.
.	16ggg\)	.	.	.
.	16aa'\	.	.	.
.	16ggg'\JJ	.	.	.
=27	=27	=27	=27	=27
4a/ 4g/ 4e/ 4c#/	8gggT\L	.	4a/ 4e/	.
.	32aaa\LL	.	.	.
.	32bbb\	.	.	.
.	32aaa\	.	.	.
.	32ggg\JJJ	.	.	.
4a/ 4f#/ 4d/	4fff#\	.	4a/ 4d/	.
*	*tuplet	*	*	*
!	!LO:TUP:a	!	!	!
4a/ 4f#/	8dddS\L	.	2r	.
.	16.eee\L	.	.	.
.	32fff#\JJk	.	.	.
4b/ 4g#X/	8eee\L	.	.	.
.	8ddd\J	.	.	.
=28	=28	=28	=28	=28
*^	*	*	*	*
!	!	!	!	!LO:TX::a:t=1	!
2ee/	4a\	8ddd\L	.	1r	.
.	.	8aa\	.	.	.
.	4gn\	8.ddd\	.	.	.
.	.	16eee\Jk	.	.	.
.	.	8qqeee/	.	.	.
4a/	4f#\	4aaT\	.	.	.
!	!	!LO:TUP:numer:problem	!	!	!
4f#/	4d\	24ddd'\LL	.	.	.
.	.	24ccc#'\	.	.	.
.	.	24bb'\	.	.	.
.	.	24aa'\	.	.	.
.	.	24gg'\	.	.	.
.	.	24ff#'\JJ	.	.	.
*v	*v	*	*	*	*
!LO:LB:g=original	!	!	!	!
=29	=29	=29	=29	=29
4e/ 4c#/ 4A/	16ee/LL	.	2r	.
.	16a/	.	.	.
.	16cc#/	.	.	.
.	16ee/JJ	.	.	.
4r>	16aa/LL	.	.	.
.	16qqccc#/	.	.	.
.	16bb/	.	.	.
.	16aa/	.	.	.
.	16gg/JJ	.	.	.
4a>\ 4f#>\ 4d>\	4ff#/	.	4f#/ 4A/	.
4a>\ 4f#>\ 4d>\	4ff#/	.	4f#/ 4A/	.
=30	=30	=30	=30	=30
2a>\ 2f#>\ 2d>\	4.ff#t/	.	4f#/ 4A/	.
.	.	.	4r	.
.	16gg/LL	.	.	.
.	16aa/JJ	.	.	.
4g>\ 4e>\ 4c#>\	16aa/LL	.	4e/ 4A/	.
.	16gg/	.	.	.
.	16.ee/	.	.	.
.	32gg/JJk	.	.	.
4a>\ 4f#>\ 4d>\	16gg/LL	.	4f#/ 4A/	.
.	16ff#/	.	.	.
.	16.dd/	.	.	.
.	32ff#/JJk	.	.	.
*clefF4	*	*	*	*
=31	=31	=31	=31	=31
4g\ 4A\	8ff#\L	.	4g/ 4A/	.
.	(32ee\LL	.	.	.
.	32dd\	.	.	.
.	32ff#\	.	.	.
.	32ee\JJJ	.	.	.
4f#\ 4d\	4dd\)	.	4f#/ 4A/	.
4d\ 4B\ 4G\	16bb\LL	.	2r	.
.	16ddd\	.	.	.
.	16ccc#\	.	.	.
.	16bb\JJ	.	.	.
4f#\ 4d\ 4A\	16aa\LL	.	.	.
.	16ff#\	.	.	.
.	16bb\	.	.	.
.	16aa\JJ	.	.	.
=32	=32	=32	=32	=32
4d\ 4B\	16gg#X\LL	.	2r	.
.	16bb\	.	.	.
.	16aa\	.	.	.
.	16gg#\JJ	.	.	.
4e\ 4c#\	16ggn\LL	.	.	.
.	16bb\	.	.	.
.	16aa\	.	.	.
.	16gg\JJ	.	.	.
!LO:LB:g=original	!	!	!	!
4f#\ 4d\	16ff#\KL	.	4a/ 4f#/ 4A/	.
.	8bb\	.	.	.
.	16aa\Jk	.	.	.
4g\ 4c#\ 4A\	16ee\KL	.	4g/ 4A/	.
.	8bb\	.	.	.
.	16aa\Jk	.	.	.
!	!	!	!LO:LB:g=original	!
=33	=33	=33	=33	=33
2f#\ 2d\	16ddT\LL	.	4f#/ 4A/	.
.	32ee\L	.	.	.
.	32ff#\JJJ	.	.	.
.	32gg\LLL	.	.	.
.	32aa\	.	.	.
.	32bb\	.	.	.
.	32ccc#\JJJ	.	.	.
!	!LO:TX:t=P:problem=mixed beam	!	!	!
.	8ddd\L	.	8r	.
!	!	!	!LO:MO:null:mod=!LO&colon;TX&colon;i&colon;t=arco	!
!	!	!	!	!
!	!	!	!LO:MO:mod=!LO&colon;TX&colon;i&colon;t=dolce	!
!	!	!	!LO:TX::ab:t=Dol.	!
.	8A/J	.	8a\	.
!	!	!LO:DY:b=2	!	!
16DD/LL	4f#/ 4d/ 4A/	mf	4ff#\	.
16CC#/	.	.	.	.
16DD/	.	.	.	.
16FF#/JJ	.	.	.	.
16AA/LL	4f#/ 4d/ 4A/	.	4ff#\	.
16FF#/	.	.	.	.
16D/	.	.	.	.
16AA/JJ	.	.	.	.
=34	=34	=34	=34	=34
*	*^	*	*	*
16F#\LL	4.f#/	2d\ 2A\	.	4.ff#t\	.
16D\	.	.	.	.	.
16A\	.	.	.	.	.
16F#\JJ	.	.	.	.	.
16D/LL	.	.	.	.	.
16AA/	.	.	.	.	.
16FF#/	16g/LL	.	.	16gg\LL	.
16DD/JJ	16a/JJ	.	.	16aa\JJ	.
16CC#/LL	4g/ 4e/ 4A/	2ryy	.	4gg\	.
16AAA/	.	.	.	.	.
16BBB/	.	.	.	.	.
16CC#/JJ	.	.	.	.	.
16DD/LL	4f#/ 4d/ 4A/	.	.	4ff#\	.
16EE/	.	.	.	.	.
16FF#/	.	.	.	.	.
16GG/JJ	.	.	.	.	.
=35	=35	=35	=35	=35	=35
16AA/LL	8f#/L	4c#\ 4G\	.	16ff#\LL	.
16BB/	.	.	.	16ee\	.
16C#/	8e/J	.	.	16gg\	.
16AA/JJ	.	.	.	16ee\JJ	.
16D/LL	4d/	4F#\	.	4dd\	.
16AA/	.	.	.	.	.
16FF#/	.	.	.	.	.
16DD/JJ	.	.	.	.	.
!LO:LB:g=original	!	!	!	!	!
16E\LL	8.c#/L 8.A/	2ryy	.	8.cc#\L	.
16G\	.	.	.	.	.
16F#\	.	.	.	.	.
16E\JJ	32B/LL	.	.	32b\LL	.
.	32A/JJJ	.	.	32a\JJJ	.
16D\LL	4d/ 4A/	.	.	8dd\L	.
16F#\	.	.	.	.	.
16E\	.	.	.	16r	.
16D\JJ	.	.	.	16ff#\Jk	.
=36	=36	=36	=36	=36	=36
16C#/LL	8.e/L	4c#\ 4A\	.	8.ee\L	.
16AA/	.	.	.	.	.
16BB/	.	.	.	.	.
16C#/JJ	32f#/LL	.	.	32ff#\LL	.
.	32g/JJJ	.	.	32gg\JJJ	.
16D/LL	8.f#/L	4d\ 4A\	.	8.ff#\L	.
16AA/	.	.	.	.	.
16C#/	.	.	.	.	.
16D/JJ	32g/LL	.	.	32gg\LL	.
.	32a/JJJ	.	.	32aa\JJJ	.
16E/LL	8.g/L	4e\ 4A\	.	8.gg\L	.
16AA/	.	.	.	.	.
16BB/	.	.	.	.	.
16C#/JJ	16a/K	.	.	16aa\K	.
16D\LL	8.f#/	4d\	.	8.ff#\	.
16F#\	.	.	.	.	.
16A\	.	.	.	.	.
16d\JJ	16g/Jk	.	.	16gg\Jk	.
=37	=37	=37	=37	=37	=37
16A\LL	4e/	4c#\	.	4ee\	.
16G#X\	.	.	.	.	.
16Gn\	.	.	.	.	.
16E\JJ	.	.	.	.	.
!	!	!	!	!LO:TUP:numer:global:problem	!
!	!	!	!	!LO:TUP:a	!
16C#/LL	4r	4ryy	.	24r	.
.	.	.	.	24a'\LL	.
16AA/	.	.	.	.	.
.	.	.	.	24b'\	.
16GG/	.	.	.	24cc#'\	.
.	.	.	.	24dd'\	.
16EE/JJ	.	.	.	.	.
.	.	.	.	24ee'\JJ	.
16DD/LL	4f#/ 4d/ 4A/	2ryy	.	4ff#\	.
16CC#/	.	.	.	.	.
16DD/	.	.	.	.	.
16FF#/JJ	.	.	.	.	.
16AA/LL	4f#/ 4d/ 4A/	.	.	4ff#\	.
16FF#/	.	.	.	.	.
16D/	.	.	.	.	.
16AA/JJ	.	.	.	.	.
!	!	!	!	!LO:LB:g=original	!
=38	=38	=38	=38	=38	=38
16F#\LL	4.f#/	2d\ 2A\	.	4.ff#t\	.
16D\	.	.	.	.	.
16A\	.	.	.	.	.
16F#\JJ	.	.	.	.	.
16D/LL	.	.	.	.	.
16AA/	.	.	.	.	.
16FF#/	16g/LL	.	.	16gg\LL	.
16DD/JJ	16a/JJ	.	.	16aa\JJ	.
!LO:LB:g=original	!	!	!	!	!
16CC#/LL	4g/ 4e/ 4A/	2ryy	.	4gg\	.
16AAA/	.	.	.	.	.
16BBB/	.	.	.	.	.
16CC#/JJ	.	.	.	.	.
16DD/LL	4f#/ 4d/ 4A/	.	.	4ff#\	.
16EE/	.	.	.	.	.
16FF#/	.	.	.	.	.
16GG/JJ	.	.	.	.	.
=39	=39	=39	=39	=39	=39
16AA/LL	8f#/L	4c#\ 4G\	.	8ff#\L	.
16BB/	.	.	.	.	.
16C#/	8e/J	.	.	8ee\J	.
16AA/JJ	.	.	.	.	.
16D\LL	4d/	4F#\	.	4dd\	.
16F#\	.	.	.	.	.
16E\	.	.	.	.	.
16D\JJ	.	.	.	.	.
16BB/LL	8.g#X/L	4e\	.	8.gg#X\L	.
16D/	.	.	.	.	.
16C#/	.	.	.	.	.
16BB/JJ	32a/LL	.	.	32aa\LL	.
.	32b/JJJ	.	.	32bb\JJJ	.
16C#/LL	4a/	4e\	.	4aa\	.
16E/	.	.	.	.	.
16C#/	.	.	.	.	.
16AA/JJ	.	.	.	.	.
=40	=40	=40	=40	=40	=40
16GG#X/LL	8.b/L	4e\	.	8.bb\L	.
16BB/	.	.	.	.	.
16EE/	.	.	.	.	.
16GG#/JJ	32cc#/LL	.	.	32ccc#\LL	.
.	32dd/JJJ	.	.	32ddd\JJJ	.
16AA\LL	4cc#/	4e\	.	4ccc#\	.
16C#\	.	.	.	.	.
16E\	.	.	.	.	.
16A\JJ	.	.	.	.	.
16D\LL	4b/	4fn\ 4d\	.	4bb\	.
16E\	.	.	.	.	.
16Fn\	.	.	.	.	.
16D\JJ	.	.	.	.	.
!LO:TX:t=P:problem=mixed beam	!	!	!	!	!
16E\LL	4g#X/ 4d/ 4B/	4ryy	.	4gg#X\	.
16D#X\	.	.	.	.	.
16E\	.	.	.	.	.
16EE/JJ	.	.	.	.	.
*	*v	*v	*	*	*
=41	=41	=41	=41	=41
16AA\LL	2a/ 2e/ 2c#/	.	2aa\	.
16A\	.	.	.	.
16E\	.	.	.	.
16C#\JJ	.	.	.	.
16AA\LL	.	.	.	.
16C#\	.	.	.	.
16E\	.	.	.	.
16A\JJ	.	.	.	.
16G\LL	4e/	.	4ee\	.
16B\	.	.	.	.
16A\	.	.	.	.
16G\JJ	.	.	.	.
16F#\LL	4f#/ 4d#X/ 4B/	.	4ff#t\	.
16A\	.	.	.	.
16G\	.	.	.	.
16F#\JJ	.	.	.	.
!LO:LB:g=original	!	!	!	!
=42	=42	=42	=42	=42
16E\LL	4.g/ 4.e/ 4.B/	.	4.gg\	.
16G\	.	.	.	.
16F#\	.	.	.	.
16E\JJ	.	.	.	.
16D#X\LL	.	.	.	.
16E\	.	.	.	.
16Dn\	8g#X/ 8e/ 8B-X/	.	8gg#X\	.
16E\JJ	.	.	.	.
16C#/LL	4a/ 4e/ 4A/	.	4aa\	.
16D/	.	.	.	.
16E/	.	.	.	.
16D/JJ	.	.	.	.
16C#/LL	4gn/ 4e/ 4A/	.	4ggn\	.
16AA/	.	.	.	.
16BB/	.	.	.	.
16C#/JJ	.	.	.	.
=43	=43	=43	=43	=43
*	*^	*	*	*
16D/LL	4g/ 4e/ 4A/	2ryy	.	(4gg\	.
16AA/	.	.	.	.	.
16FF#/	.	.	.	.	.
16AA/JJ	.	.	.	.	.
16DD/LL	4f#/ 4d/ 4A/	.	.	4ff#\)	.
16FF#/	.	.	.	.	.
16AA/	.	.	.	.	.
16D/JJ	.	.	.	.	.
16F#\LL	4dd/	4a\	.	4ddd\	.
16D\	.	.	.	.	.
16E\	.	.	.	.	.
16F#\JJ	.	.	.	.	.
.	8qqff#/	.	.	8qfff#/	.
16G\LL	8.ee/L	4b\	.	8.eee\L	.
16E\	.	.	.	.	.
16F#\	.	.	.	.	.
16G\JJ	16dd/Jk	.	.	16ddd\Jk	.
!	!	!	!	!LO:LB:g=original	!
=44	=44	=44	=44	=44	=44
!LO:TX:t=P:problem=mixed beam	!	!	!	!	!
16G#X\LL	8dd/L	2a\	.	8ddd\L	.
16A\	.	.	.	.	.
16AA/	8cc#/	.	.	8ccc#\	.
16A\JJ	.	.	.	.	.
!LO:TX:t=P:problem=mixed beam	!	!	!	!	!
16Gn\LL	8dd/	.	.	8ddd\	.
16A\	.	.	.	.	.
16AA/	8ee/J	.	.	8eee\J	.
16A\JJ	.	.	.	.	.
!LO:TX:t=P:problem=mixed beam	!	!	!	!	!
16F#\LL	8.a/L	2d\	.	8.aa\L	.
16A\	.	.	.	.	.
16AA/	.	.	.	.	.
16A\JJ	32b/LL	.	.	32bb\LL	.
.	32a/JJJ	.	.	32aa\JJJ	.
!LO:TX:t=P:problem=mixed beam	!	!	!	!	!
16D\LL	8g/L	.	.	8gg\L	.
16A\	.	.	.	.	.
16AA/	8f#/J	.	.	8ff#\J	.
16A\JJ	.	.	.	.	.
*	*v	*v	*	*	*
!LO:PB:g=original	!	!	!	!
=45	=45	=45	=45	=45
16C#\LL	4e/ 4c#/ 4A/	.	4ee\	.
16E\	.	.	.	.
16A\	.	.	.	.
16E\JJ	.	.	.	.
16C#/LL	4r	.	24r	.
.	.	.	24a'\LL	.
16AA/	.	.	.	.
.	.	.	24b'\	.
16EE/	.	.	24cc#'\	.
.	.	.	24dd'\	.
16CC#/JJ	.	.	.	.
.	.	.	24ee'\JJ	.
16DD/LL	4f#/ 4d/ 4A/	.	4ff#\	.
16CC#/	.	.	.	.
16DD/	.	.	.	.
16FF#/JJ	.	.	.	.
16AA/LL	4f#/ 4d/ 4A/	.	4ff#\	.
16FF#/	.	.	.	.
16D/	.	.	.	.
16AA/JJ	.	.	.	.
=46	=46	=46	=46	=46
*	*^	*	*	*
16F#\LL	4.f#/	2d\ 2A\	.	(4.ff#\	.
16D\	.	.	.	.	.
16A\	.	.	.	.	.
16F#\JJ	.	.	.	.	.
16D/LL	.	.	.	.	.
16AA/	.	.	.	.	.
16FF#/	16g/LL	.	.	16gg\LL	.
16DD/JJ	16a/JJ	.	.	16aa\JJ)	.
16CC#/LL	4g/	4e\ 4A\	.	4gg\	.
16AAA/	.	.	.	.	.
16BBB/	.	.	.	.	.
16CC#/JJ	.	.	.	.	.
16DD/LL	4f#/	4d\ 4A\	.	4ff#\	.
16EE/	.	.	.	.	.
16FF#/	.	.	.	.	.
16GG/JJ	.	.	.	.	.
=47	=47	=47	=47	=47	=47
16AA/LL	8f#/L	4c#\ 4G\	.	8ff#\L	.
16BB/	.	.	.	.	.
16C#/	8e/J	.	.	8ee\J	.
16AA/JJ	.	.	.	.	.
16D/LL	4d/ 4F#/	4ryy	.	4dd\	.
16DD/	.	.	.	.	.
16EE/	.	.	.	.	.
16FF#/JJ	.	.	.	.	.
16GG/LL	4b/ 4g/ 4d/	2ryy	.	4bb\	.
16BB/	.	.	.	.	.
16D/	.	.	.	.	.
16G/JJ	.	.	.	.	.
16AA\LL	4a/ 4f#/ 4d/	.	.	4aa\	.
16D\	.	.	.	.	.
16F#\	.	.	.	.	.
16A\JJ	.	.	.	.	.
*	*v	*v	*	*	*
!LO:LB:g=original	!	!	!	!
=48	=48	=48	=48	=48
16BB\LL	4g#X/ 4fn/ 4d/	.	4gg#X\	.
16D\	.	.	.	.
16Fn\	.	.	.	.
16B\JJ	.	.	.	.
16C#\LL	4gn/ 4e/	.	4ggn\	.
16E\	.	.	.	.
16A\	.	.	.	.
16c#\JJ	.	.	.	.
!	!LO:SIC:v:s=8.f# 8.dL	!	!	!
16D\LL	8.f/L 8.d/	.	8.ff#\L	.
16d\	.	.	.	.
16A\	.	.	.	.
16F\JJ	16a/Jk	.	16aa\K	.
16A\LL	8.g/L 8.e/ 8.c#/	.	8.gg\	.
16E\	.	.	.	.
16C#\	.	.	.	.
16AA\JJ	16e/Jk	.	16ee\Jk	.
!	!	!	!LO:LB:g=original	!
=49	=49	=49	=49	=49
16D/LL	2d/ 2F#/	.	2dd\	.
16AA/	.	.	.	.
16FF#/	.	.	.	.
16AA/JJ	.	.	.	.
!	!	!LO:MO:mod=!null:null	!	!
!	!	!LO:DY:t=fo	!	!
4DD/	.	f	.	.
4DD/	4f#/ 4d/ 4A/	.	2r	.
4DD/	4f#/ 4d/ 4A/	.	.	.
=50	=50	=50	=50	=50
*	*^	*	*	*
!	!	!	!	!LO:TX::a:t=3:mod=	!
2DD#X/	4.f#/	2cn\	.	0r	.
.	16g/LL	.	.	.	.
.	16a/JJ	.	.	.	.
4EE/	4g/	4B\	.	.	.
4FF#/ 4FFF#/	4f#/	4d#X\ 4A\	.	.	.
=51	=51	=51	=51	=51	=51
2GG/ 2GGG/	2e/	2B\ 2G\	.	.	.
!LO:SIC:v:s=4GG#/ 4GGG#/	!	!	!	!	!
4GG#X/ 4GGG/	4e/ 4d/ 4B/	2ryy	.	.	.
4AA/ 4AAA/	4e/ 4d/ 4A/	.	.	.	.
*	*v	*v	*	*	*
!LO:LB:g=original	!	!	!	!
=52	=52	=52	=52	=52
!LO:MO:mod=*null:null	!	!	!	!
*8ba	*	*	*	*
*	*^	*	*	*
!LO:MO:mod=2AAA 2AA	!	!	!	!	!
2AAA/	4.e/	2c#\ 2G\	.	1r	.
.	16f#/LL	.	.	.	.
.	16g/JJ	.	.	.	.
!LO:MO:mod=4BBB 4BB	!	!	!	!	!
4BBB\	4f#/ 4F#</	2ryy	.	.	.
!LO:MO:mod=4CC# 4C#	!	!	!	!	!
4CC#\	4e/ 4c#/ 4A</ 4F#</	.	.	.	.
*	*v	*v	*	*	*
=53	=53	=53	=53	=53
!LO:MO:mod=2DD 2D	!	!	!	!
2DD\	2d/ 2B/ 2F#</	.	2r	.
!	!	!	!	!LO:MO:mod=!null:null
!	!	!	!	!LO:DY:t=fo
.	.	.	.	f
!LO:MO:mod=4DD 4D	!	!	!	!
4DD\	4f#/ 4B/ 4E</	.	4ff#\	.
!LO:MO:mod=4CC# 4C#\\	!	!	!	!
4CC#\	4f#/ 4e/ 4A#X/	.	4ff#\	.
=54	=54	=54	=54	=54
*	*^	*	*	*
!LO:MO:mod=2BBB 2BB	!	!	!	!	!
2BBB\	4.f#/	2d\ 2B<\	.	4.ff#t\	.
.	16g/LL	.	.	16gg\LL	>
.	16a/JJ	.	.	16aa\JJ	.
!LO:MO:mod=4BBB- 4BB-	!	!	!	!	!
4BBB-X\	4g/ 4d/ 4G</	2ryy	.	4gg\	.
!LO:MO:mod=4AAA 4AA	!	!	!	!	!
4AAA\	4f#/ 4d/ 4A</	.	.	4ff#\	.
*	*v	*v	*	*	*
=55	=55	=55	=55	=55
!LO:MO:mod=2GGG# 2GG#	!	!	!	!
2GGG#X/	2e/ 2d/ 2B</	.	2ee\	.
!LO:MO:mod=4GGG 4GG\\	!	!	!	!
4GGGn/	4e/ 4c#X/ 4B-X</	.	4ee\	]
!LO:MO:mod=4FFF# 4FF#	!	!	!	!
4FFF#/	4f#/ 4d/ 4A</	.	4ff#\	p
*X8ba	*	*	*	*
=56	=56	=56	=56	=56
*	*^	*	*	*
*	*	*^	*	*	*
4E\ 4EE\	4.g/	4c#\	2A</	.	(4.gg\	.
4C#\ 4CC#\	.	4e\	.	.	.	.
.	16a/LL	.	.	.	16aa\LL	.
.	16g/JJ	.	.	.	16gg\JJ)	.
4D\ 4DD\	4f#/ 4d/ 4A</	2ryy	2ryy	.	4ff#\	.
4F#\ 4FF#\	4a/ 4d/ 4A</	.	.	.	4aa\	.
*	*v	*v	*v	*	*	*
=57	=57	=57	=57	=57
2AA/ 2AAA/	4e/ 4c#/	p	4ee\	.
.	4r	.	4r	.
4AA/ 4AAA/	4a/ 4c#/ 4A/	.	2r	.
4AA/ 4AAA/	4a/ 4e/ 4c#/	.	.	.
!LO:LB:g=original	!	!	!LO:LB:g=original	!
=58	=58	=58	=58	=58
!LO:MO:mod=*null:null	!	!	!	!
*8ba	*	*	*	*
*	*^	*	*	*
!LO:MO:mod=2AAA 2AA	!	!	!	!	!
2AAA/	4.a/	[2f#\ 2d\	.	2r	.
.	16b/LL	.	.	.	.
.	16ccn/JJ	.	.	.	.
!LO:MO:mod=4AAA 4AA	!	!	!	!	!
4AAA/	4b/	4f#\] 4d#X\	.	8r	.
.	.	.	.	(8b'\L	<
!LO:MO:mod=4AAA 4AA	!	!	!	!	!
4AAA/	4a/	4f#\ 4d#\	.	8cc#'\	.
.	.	.	.	8dd#X'\J)	[[
=59	=59	=59	=59	=59	=59
!LO:MO:mod=2AAA 2AA	!	!	!	!	!
2AAA/	2g/	2e\	.	4.ee\	.
.	.	.	.	8ff#\	.
!LO:MO:mod=4AAA 4AA	!	!	!	!	!
4AAA/	4g/	4e\	.	4gg\	.
!LO:MO:mod=4AAA 4AA	!	!	!	!	!
4AAA/	4g/	4e\ 4d\	.	4r	.
=60	=60	=60	=60	=60	=60
!LO:MO:mod=2AAA 2AA	!	!	!	!	!
2AAA/	4.g/	[2e\ 2c#\	.	2r	.
.	16a/LL	.	.	.	.
.	16b/JJ	.	.	.	.
!LO:MO:mod=4AAA 4AA	!	!	!	!	!
4AAA/	4a/	4e\] 4c#\	.	8r	.
.	.	.	.	8a\L	.
!LO:MO:mod=4AAA 4AA	!	!	!	!	!
4AAA/	4g/	4e\ 4c#\	.	8b\	<
.	.	.	.	8cc#S\J	.
=61	=61	=61	=61	=61	=61
!LO:MO:mod=2AAA 2AA	!	!	!	!	!
2AAA/	2f#/	2d\	.	4.dd\	[
.	.	.	.	8ee\	.
!LO:MO:mod=4AAA 4AA	!	!	!	!	!
4AAA/	4f#/	4d\	.	4ff#\	.
!LO:MO:mod=4AAA 4AA	!	!	!	!	!
4AAA/	4f#/	4d\ 4c#\	.	4r	.
=62	=62	=62	=62	=62	=62
!LO:MO:mod=2AAA 2AA	!	!	!	!	!
2AAA/	4.f#/	[2d\ 2B\	.	2r	.
.	16g/LL	.	.	.	.
.	16a/JJ	.	.	.	.
!LO:MO:mod=4AAA 4AA	!	!	!	!	!
4AAA/	4g/	4d\] 4B\	.	8r	.
.	.	.	.	8g/L	.
!LO:MO:mod=4AAA 4AA	!	!	!	!	!
4AAA/	4f#/	4d\ 4B\	.	8a/	.
.	.	.	.	8b/J	.
=63	=63	=63	=63	=63	=63
!LO:MO:mod=2AAA 2AA	!	!	!	!	!
2AAA/	2e/	2c#\	.	4.cc#S\	.
.	.	.	.	8dd\	.
!LO:MO:mod=4AAA 4AA	!	!	!	!	!
4AAA/	4e/	4c#\	.	4ee\	.
!LO:MO:mod=4AAA 4AA	!	!	!	!	!
4AAA/	4e/	4c#\ 4B\	.	4r	.
!LO:LB:g=original	!	!	!	!LO:LB:g=original	!
=64	=64	=64	=64	=64	=64
2AAA/	4.e/	2c#\ 2A\	.	2r	.
.	16f#/LL	.	.	.	.
.	16g/JJ	.	.	.	.
4AAA#X/	4f#/ 4c#/ 4F#</	2ryy	.	8r	.
.	.	.	.	8f#/L	>
4FFF#/	4e/ 4c#/ 4F#</	.	.	8g#X/	.
.	.	.	.	8a#X/J	]]
*	*v	*v	*	*	*
*X8ba	*	*	*	*
=65	=65	=65	=65	=65
4D/ 4DD;/	4d/ 4B/ 4F#;/	.	8.bS;\L	.
.	.	.	16cc#\Jk	.
4r;	4r;	.	4dd;\	.
4B\ 4BB\	4dd\ 4b\	p	2r	.
!LO:SIC:v:s=4G#\ 4GG#\	!	!	!	!
4G#X\ 4GG\	4ff#\ 4dd\ 4b\	.	.	.
=66	=66	=66	=66	=66
*	*^	*	*	*
!	!	!	!	!LO:TX::a:t=3:mod=	!
[2A\ 2AA\	4.ff#S/	2dd\ 2a\	.	0r	.
.	8gg/	.	.	.	.
8A\]L 8AA\	4aa/ 4ee/	4dd\ 4a\	.	.	.
8A'\	.	.	.	.	.
8B'\	4gg/	4ee\ 4a\	.	.	.
8c#'\J	.	.	.	.	.
=67	=67	=67	=67	=67	=67
4d\	4ff#/	4dd\ 4a\	.	.	.
4r	4r	4ryy	.	.	.
4BB/ 4BBB/	4f#/ 4d/ 4B/	2ryy	.	.	.
!LO:SIC:v:s=4GG#/ 4GGG#/	!	!	!	!	!
4GG#X/ 4GGG/	4f#/ 4d/ 4B/	.	.	.	.
=68	=68	=68	=68	=68	=68
2AA/ [2AAA/	4.f#/	2d\ 2A\	.	1r	.
.	8g/	.	.	.	.
8AA/L 8AAA/]	4a/ 4e/ 4d/ 4A/	2ryy	.	.	.
8AA'/	.	.	.	.	.
8BB'/	4g/ 4e/ 4A/	.	.	.	.
8C#'/J	.	.	.	.	.
*	*v	*v	*	*	*
=69	=69	=69	=69	=69
4D\	4f#/ 4d/ 4A/	.	4r	.
*	*	*	*Xtuplet	*
!	!	!LO:MO:null:mod=.	!	!
4r	4r	pp	24r	.
.	.	.	24a'\LL	.
.	.	.	24b'\	.
.	.	.	24cc#'\	.
.	.	.	24dd'\	.
.	.	.	24ee'\JJ	.
!	!	!	!LO:MO:mod=!LO&colon;TX&colon;i&colon;t=dolce	!
!	!	!LO:MO:null:mod=pp	!LO:TX::a:t=Dol	!
4D/ 4DD/	4f#/ 4d/ 4A/	.	4ff#\	.
4D/ 4DD/	4f#/ 4d/ 4A/	.	4ff#\	.
=70	=70	=70	=70	=70
2D/ 2DD/	2f#/ 2d/ 2A/	.	4.ff#t\	.
.	.	.	16gg\LL	.
.	.	.	16aa\JJ	.
4D/ 4DD/	4g/ 4d/ 4B/	.	4gg\	.
4D/ 4DD/	4f#/ 4d/ 4A/	.	4ff#\	.
!LO:LB:g=original	!	!	!	!
=71	=71	=71	=71	=71
!LO:MO:mod=2DD 2D\	!	!	!	!
2D\ 2DD\	2e/ 2c#/ 2B-X</	.	2ee\	.
.	.	.	.	<
4D\ 4DD\	4e/ 4c#/ 4A</	.	4ee\	.
4D\ 4DD\	4e/ 4c#/ 4A</	.	4ee\	[[
!	!	!	!LO:LB:g=original	!
=72	=72	=72	=72	=72
2D\ 2DD\	2g/ 2c#/ 2B-</ 2G</	.	(4.gg\	sf
.	.	.	16ee\LL	.
.	.	.	16dd\JJ)	.
4D\ 4DD\	4c#/ 4B-</ 4G</	.	4cc#\	.
4D\ 4DD\	4e/ 4c#/ 4B-</ 4G</	.	4ee\	.
=73	=73	=73	=73	=73
4D\ 4DD\	4d/ 4A</ 4F#</	.	2dd\	p
4D\	4r	.	.	.
!	!	!	!	!LO:MO:mod=!null:null
!	!	!	!	!LO:HP:t=diminuendo
4AA\	4f#/ 4d/ 4A/	.	4ff#\	>
4FF#\	4f#/ 4d/ 4A/	.	4aa\	.
=74	=74	=74	=74	=74
*	*	*	*8va	*
4DD/	4f#/ 4d/ 4A/	.	2ddd\	.
!	!	!LO:MO:mod=!null:null	!	!
!	!	!LO:HP:t=dimin	!	!
4D\	4r	>	.	.
4AA/	4a/ 4f#/ 4d/	.	4fff#\	.
4FF#/	4a/ 4f#/ 4d/	.	4aaa\	.
=75	=75	=75	=75	=75
4DD/	4a/ 4f#/ 4d/	.	[1dddd\	.
4D\	4r	.	.	.
4AA/	4dd\ 4a\ 4f#\	>	.	.
4FF#/	4dd\ 4a\ 4f#\	]]	.	.
=76	=76	=76	=76	=76
1D/: 1DD/;:	1dd/: 1a/: 1f#/;:	.	1dddd\;]	.
*	*	*	*X8va	*
==	==	==	==	==
*-	*-	*-	*-	*-
!!!system-decoration: s1[s2,s3]
!!!RDF**kern: > = above
!!!RDF**kern: < = below
!!!RDF**dynam: p = p.
!!!EED: Leszek Kubiak
!!!EEV: 2021-04-13
!!!ENC: Kamil Watkowski
!!!END: 2021-03-27
!!!ENC-modern: Andrzej Borzym
!!!END-modern: 2022-08-20
!!!YEC: Copyright 2022 Narodowy Instytut Fryderyka Chopina (https://polishscores.org)
!!!YEM: License CC-BY-4.0 (https://creativecommons.org/licenses/by/4.0)
